images/logos/visa.svg

<svg width="69" height="21" viewBox="0 0 69 21" fill="none" xmlns="http://www.w3.org/2000/svg">
<path d="M63.8004 0.299805H59.5004C58.2004 0.299805 57.2004 0.699805 56.6004 1.9998L48.4004 20.6998H54.2004C54.2004 20.6998 55.2004 18.1998 55.4004 17.5998C56.0004 17.5998 61.7004 17.5998 62.5004 17.5998C62.7004 18.2998 63.2004 20.5998 63.2004 20.5998H68.4004L63.8004 0.299805ZM57.0004 13.3998C57.5004 12.1998 59.2004 7.6998 59.2004 7.6998C59.2004 7.7998 59.7004 6.4998 59.9004 5.7998L60.3004 7.5998C60.3004 7.5998 61.4004 12.4998 61.6004 13.4998H57.0004V13.3998Z" fill="#3362AB"/>
<path d="M48.8004 14C48.8004 18.2 45.0004 21 39.1004 21C36.6004 21 34.2004 20.5 32.9004 19.9L33.7004 15.3L34.4004 15.6C36.2004 16.4 37.4004 16.7 39.6004 16.7C41.2004 16.7 42.9004 16.1 42.9004 14.7C42.9004 13.8 42.2004 13.2 40.0004 12.2C37.9004 11.2 35.1004 9.6 35.1004 6.7C35.1004 2.7 39.0004 0 44.5004 0C46.6004 0 48.4004 0.4 49.5004 0.9L48.7004 5.3L48.3004 4.9C47.3004 4.5 46.0004 4.1 44.1004 4.1C42.0004 4.2 41.0004 5.1 41.0004 5.9C41.0004 6.8 42.2004 7.5 44.1004 8.4C47.3004 9.9 48.8004 11.6 48.8004 14Z" fill="#3362AB"/>
<path d="M0 0.500098L0.1 0.100098H8.7C9.9 0.100098 10.8 0.500098 11.1 1.8001L13 10.8001C11.1 6.0001 6.7 2.1001 0 0.500098Z" fill="#F9B50B"/>
<path d="M25.1 0.300195L16.4 20.6002H10.5L5.5 3.6002C9.1 5.9002 12.1 9.5002 13.2 12.0002L13.8 14.1002L19.2 0.200195H25.1V0.300195Z" fill="#3362AB"/>
<path d="M27.4004 0.200195H32.9004L29.4004 20.6002H23.9004L27.4004 0.200195Z" fill="#3362AB"/>
</svg>

<svg width="69" height="21" fill="none" xmlns="http://www.w3.org/2000/svg"><path d="M63.8.3h-4.3c-1.3 0-2.3.4-2.9 1.7l-8.2 18.7h5.8s1-2.5 1.2-3.1h7.1c.2.7.7 3 .7 3h5.2L63.8.3zM57 13.4c.5-1.2 2.2-5.7 2.2-5.7 0 .1.5-1.2.7-1.9l.4 1.8s1.1 4.9 1.3 5.9H57v-.1zm-8.2.6c0 4.2-3.8 7-9.7 7-2.5 0-4.9-.5-6.2-1.1l.8-4.6.7.3c1.8.8 3 1.1 5.2 1.1 1.6 0 3.3-.6 3.3-2 0-.9-.7-1.5-2.9-2.5-2.1-1-4.9-2.6-4.9-5.5 0-4 3.9-6.7 9.4-6.7 2.1 0 3.9.4 5 .9l-.8 4.4-.4-.4c-1-.4-2.3-.8-4.2-.8-2.1.1-3.1 1-3.1 1.8 0 .9 1.2 1.6 3.1 2.5 3.2 1.5 4.7 3.2 4.7 5.6z" fill="#3362AB"/><path d="M0 .5L.1.1h8.6c1.2 0 2.1.4 2.4 1.7l1.9 9C11.1 6 6.7 2.1 0 .5z" fill="#F9B50B"/><path d="M25.1.3l-8.7 20.3h-5.9l-5-17c3.6 2.3 6.6 5.9 7.7 8.4l.6 2.1L19.2.2h5.9v.1zm2.3-.1h5.5l-3.5 20.4h-5.5L27.4.2z" fill="#3362AB"/></svg>
